!!!OTL: Die dienende Schwester.
!!!OTL-incipit: Es wohnt ein Pfalzgraf ueber dem Rhein,
!!!ARE: Europa, Mitteleuropa, Deutschland (BRD), Rheinpfalz
!!!YOR: 4, S. 115
!!    1909 gedruckt in Kaiserslautern
!!!SCT: Q0075l
!!!TXL: @@DE
!!!YEM: Copyright 1995, estate of Helmut Schaffrath.
**kern	**text
*ICvox	*
!! Mixed meters:  3/4; 4/4
*M3/4	*
*k[b-]	*
*F:	*
!LO:TX:a:t=667 Rheinpfalʒ	!
{8cc	Es
8b-	wohnt
8dd	ein
=1	=1
4.g	Pfalʒgraf
8b-	.
16a	über
16a	.
8cc	dem
=2	=2
4.f}	Rhein,
{8a	der
8g	hat
8a	drei
=3	=3
4.b-	ſchö-
8g	-ne
8a	Töchterlein,
8dd	.
=4	=4
*M4/4	*
*met(c)	*
2cc}	.
{2ff	der
=5	=5
2ee	hat
2dd	drei
=6	=6
2cc	ſchöne
2b-	.
=7	=7
2a	Töchterlein.
2g	.
=8	=8
*M3/4	*
4f	.
8r}	.
==	==
!!!AGN: Ballade, Adelige als Dienstmagd, Tod; Kinder - Spiel, Tanz
!!!ONB: ESAC (Essen Associative Code) Database: BALLADE
!!!AMT: irregular
!!!AIN: vox
!!!EED: Helmut Schaffrath
!!!EEV: 1.0
!!!source: Deutsche Volkslieder mit ihren Melodien. Herausgegeben vom Deutschen Volksliedarchiv. Vierter Band. Berlin 1959.
!!!page: 115
!!!ENC: Anna Maria Matuszewska
!!!EEV: 2025/02/27
*-	*-
